X:6722
T:Handsome Young Maidens, The
C:Charlie Lennon
R:jig
Z:hn-jig-360
M:6/8
L:1/8
K:A
aed cdB|Ace aga|bee dee|Bee bag|
aed cdB|Ace aga|bge dBG|1 BAG A2g:|2 BAG A2B||
|:c2A EAc|dff fed|cde aec|Bff fed|
[1 c2A EAc|dff fed|cde aec|dBG A2B:|
cAA eAA|dAA fed|~e3 fdf|gfg a2g||
